X:625
T:Scartaglen
R:jig
Z:Transcribed by Dave Marshall
M:6/8
K:Amix
|: A2a a^ga | A2g gfg | A2a a^ga | efg efg |
A2a a^ga | A2g gfg | agf gfe | ~d3 dcB :|
|: cBA cee | dff cBA | cBA cec | ~d3 dcB |
cBA cee | dff cBA | ~B3 gfe | ~d3 dcB :|
